src/sources/forus-platform/resources/_platform-common/assets/img/menu/icon-products-hover.svg

<svg xmlns="http://www.w3.org/2000/svg" width="30" height="30" viewBox="-7.5 -5 30 30"><path fill="#2987FD" d="M14.9 1.3C14.7.8 14.1 0 12.3 0h-.1C11 0 9.8.3 8.6.8c-.2.1-.4.2-.7.3-.7-.7-1.9-.7-2.6 0L1.7 4.6c-.4.5-.7 1.1-.7 1.8v11.9c0 1 .8 1.7 1.7 1.7h7.8c1 0 1.7-.8 1.7-1.7V6.4c0-.3-.101-.7-.2-1 .7-.4 1.4-.9 2-1.4 1.2-1.3 1.1-2.3.9-2.7zM3.1 11.7c0-.8.7-1.5 1.5-1.5s1.5.7 1.5 1.5-.7 1.5-1.5 1.5-1.5-.7-1.5-1.5zm1.3 3.9c-.2-.1-.2-.399 0-.5l3.9-4.7c.101-.2.4-.2.5-.1.2.1.2.4 0 .5l-3.9 4.7c-.1.2-.3.2-.5.1zm4.2.1c-.8 0-1.5-.7-1.5-1.5s.7-1.5 1.5-1.5c.801 0 1.4.7 1.4 1.5s-.6 1.5-1.4 1.5zm1.6-11c-.7.3-1.4.5-2.2.6v.1c0 .8-.6 1.4-1.4 1.4-.8 0-1.4-.6-1.4-1.4-.1-.8.6-1.4 1.4-1.4.4 0 .9.2 1.1.6L9.8 4c.2-.1.5-.3.7-.4L9.1 2.2s.101 0 .101-.1c1-.4 2-.7 3.1-.7.4-.1.9.1 1.2.4.199.4-.801 1.8-3.301 2.9z"/><path fill="#004195" d="M8.1 13.801c-.2.199-.2.599 0 .899.201.2.601.2.9 0 .2-.2.2-.601 0-.899-.3-.301-.6-.301-.9 0zM5.1 11.199c-.2-.199-.6-.199-.9 0-.2.201-.2.601 0 .901.2.2.6.2.9 0 .2-.2.2-.6 0-.901z"/></svg>

<?xml version="1.0" encoding="utf-8"?>
<!DOCTYPE svg PUBLIC "-//W3C//DTD SVG 1.1//EN" "http://www.w3.org/Graphics/SVG/1.1/DTD/svg11.dtd">
<svg version="1.1" id="Layer_1" xmlns="http://www.w3.org/2000/svg" xmlns:xlink="http://www.w3.org/1999/xlink" x="0px" y="0px"
	 width="30px" height="30px" viewBox="-7.5 -5 30 30" enable-background="new -7.5 -5 30 30" xml:space="preserve">
<path fill="#2987FD" d="M14.9,1.3C14.7,0.8,14.1,0,12.3,0h-0.1C11,0,9.8,0.3,8.6,0.8C8.4,0.9,8.2,1,7.9,1.1C7.2,0.4,6,0.4,5.3,1.1
	L1.7,4.6C1.3,5.1,1,5.7,1,6.4v11.9c0,1,0.8,1.7,1.7,1.7h7.8c1,0,1.7-0.8,1.7-1.7V6.4c0-0.3-0.101-0.7-0.2-1C12.7,5,13.4,4.5,14,4
	C15.2,2.7,15.1,1.7,14.9,1.3z M3.1,11.7c0-0.8,0.7-1.5,1.5-1.5c0.8,0,1.5,0.7,1.5,1.5s-0.7,1.5-1.5,1.5C3.8,13.2,3.1,12.5,3.1,11.7z
	 M4.4,15.6c-0.2-0.1-0.2-0.399,0-0.5l3.9-4.7c0.101-0.2,0.4-0.2,0.5-0.1c0.2,0.1,0.2,0.4,0,0.5l-3.9,4.7C4.8,15.7,4.6,15.7,4.4,15.6
	z M8.6,15.7c-0.8,0-1.5-0.7-1.5-1.5s0.7-1.5,1.5-1.5c0.801,0,1.4,0.7,1.4,1.5S9.4,15.7,8.6,15.7z M10.2,4.7C9.5,5,8.8,5.2,8,5.3v0.1
	c0,0.8-0.6,1.4-1.4,1.4c-0.8,0-1.4-0.6-1.4-1.4C5.1,4.6,5.8,4,6.6,4C7,4,7.5,4.2,7.7,4.6C8.4,4.4,9.1,4.2,9.8,4
	c0.2-0.1,0.5-0.3,0.7-0.4L9.1,2.2c0,0,0.101,0,0.101-0.1c1-0.4,2-0.7,3.1-0.7c0.4-0.1,0.9,0.1,1.2,0.4C13.7,2.2,12.7,3.6,10.2,4.7z"
	/>
<path fill="#004195" d="M8.1,13.801C7.9,14,7.9,14.4,8.1,14.7c0.201,0.2,0.601,0.2,0.9,0c0.2-0.2,0.2-0.601,0-0.899
	C8.7,13.5,8.4,13.5,8.1,13.801z"/>
<path fill="#004195" d="M5.1,11.199C4.9,11,4.5,11,4.2,11.199C4,11.4,4,11.8,4.2,12.1c0.2,0.2,0.6,0.2,0.9,0
	C5.3,11.9,5.3,11.5,5.1,11.199z"/>
</svg>
